packages/core/src/svgs/myria.svg

<svg width="24" height="24" viewBox="0 0 24 24" fill="none" xmlns="http://www.w3.org/2000/svg">
<g clip-path="url(#clip0_31_14540)">
<path d="M0 0H24V24H0V0Z" fill="#181B1E"/>
<path d="M6.85716 10.2856C6.85716 9.34272 7.61573 8.57129 8.57145 8.57129C9.52716 8.57129 10.2857 9.34272 10.2857 10.2856C10.2857 11.2284 11.0443 11.9999 12 11.9999C13.0329 11.9999 13.7143 11.2113 13.7143 10.2856C13.7143 9.34272 14.4729 8.57129 15.4286 8.57129C16.3843 8.57129 17.1129 9.34272 17.1129 10.2856C17.1129 11.3356 17.8714 11.9784 18.8572 11.9999C19.7314 11.9999 20.5714 12.7927 20.5714 13.7141C20.5714 14.657 19.8 15.4284 18.84 15.4284C18.6157 15.4284 18.3936 15.384 18.1866 15.2976C17.9795 15.2113 17.7917 15.0847 17.6339 14.9253C17.476 14.7659 17.3514 14.5768 17.2671 14.3689C17.1828 14.161 17.1406 13.9385 17.1429 13.7141C17.1429 12.7713 16.3843 11.9999 15.4286 11.9999C15.2019 11.994 14.9763 12.0343 14.7657 12.1183C14.555 12.2024 14.3637 12.3285 14.2033 12.4888C14.0429 12.6492 13.9169 12.8406 13.8328 13.0512C13.7487 13.2619 13.7084 13.4874 13.7143 13.7141C13.7143 14.657 12.9557 15.4284 12 15.4284C11.0443 15.4284 10.2857 14.657 10.2857 13.7141C10.2857 12.7713 9.52716 11.9999 8.57145 11.9999C8.34472 11.994 8.11916 12.0343 7.90851 12.1183C7.69786 12.2024 7.50652 12.3285 7.34615 12.4888C7.18577 12.6492 7.05971 12.8406 6.97565 13.0512C6.89158 13.2619 6.85127 13.4874 6.85716 13.7141C6.85716 14.657 6.11573 15.4284 5.16002 15.4284C4.93377 15.4296 4.70951 15.3861 4.50005 15.3006C4.29059 15.215 4.10004 15.0891 3.93926 14.9299C3.77848 14.7707 3.65063 14.5814 3.56301 14.3728C3.47539 14.1642 3.42971 13.9404 3.42859 13.7141C3.42859 12.7799 4.21716 11.9999 5.16002 11.9999C5.38582 12.0052 5.61034 11.9644 5.81981 11.88C6.02929 11.7955 6.2193 11.6691 6.37821 11.5086C6.53711 11.3481 6.66156 11.1569 6.74392 10.9465C6.82628 10.7362 6.86481 10.5113 6.85716 10.2856Z" fill="white"/>
</g>
<defs>
<clipPath id="clip0_31_14540">
<rect width="24" height="24" fill="white"/>
</clipPath>
</defs>
</svg>

<svg xmlns="http://www.w3.org/2000/svg" width="24" height="24" fill="none" viewBox="0 0 24 24"><g clip-path="url(#a)"><path fill="#181B1E" d="M0 0h24v24H0z"/><path fill="#fff" d="M6.857 10.286c0-.943.759-1.715 1.714-1.715.956 0 1.715.772 1.715 1.715 0 .942.758 1.714 1.714 1.714 1.033 0 1.714-.789 1.714-1.714 0-.943.759-1.715 1.715-1.715.955 0 1.684.772 1.684 1.715 0 1.05.758 1.692 1.744 1.714.874 0 1.714.793 1.714 1.714a1.723 1.723 0 0 1-2.937 1.211 1.7 1.7 0 0 1-.491-1.21c0-.944-.759-1.715-1.714-1.715a1.67 1.67 0 0 0-1.715 1.714c0 .943-.758 1.714-1.714 1.714a1.71 1.71 0 0 1-1.714-1.714c0-.943-.759-1.714-1.715-1.714a1.67 1.67 0 0 0-1.714 1.714c0 .943-.741 1.714-1.697 1.714a1.72 1.72 0 0 1-1.731-1.714c0-.934.788-1.714 1.731-1.714a1.66 1.66 0 0 0 1.697-1.714"/></g><defs><clipPath id="a"><path fill="#fff" d="M0 0h24v24H0z"/></clipPath></defs></svg>
